X:250
T: Altes Tanzlied der Ostfriesen
N: A0295
O: Europa, Mitteleuropa, Deutschland
N: Cadovius Mueller, Memoriale linguae Frisicae. 1691. Mitgeth.
N: im Osterprogramm des K. Gymnasiums zu Aurich 1867 .
R: Romanze, Ballade, Lied
M: 3/4
L: 1/8
K: G
d2 | d2d2d2 | d2e2f2 | g4f2 | e4
d2 | d3cBA | G4
d2 | d2d2d2 | d2e2f2 | g4f2 | e4
d2 | d3cBA | G4z2 |
A2A2A2 | A2B2c2 | d3cB2 | A4
B2 | A3GF2 | G4B2 | A3GF2 | G4

@@@ Tune index: 250
